src/svg/move.svg

<svg width="32" height="32" viewBox="0 0 32 32" xmlns="http://www.w3.org/2000/svg">
<path fill-rule="evenodd" clip-rule="evenodd" d="M15.2929 4.29289C15.6834 3.90237 16.3166 3.90237 16.7071 4.29289L19.7071 7.29289C20.0976 7.68342 20.0976 8.31658 19.7071 8.70711C19.3166 9.09763 18.6834 9.09763 18.2929 8.70711L17 7.41421V15H24.5858L23.2929 13.7071C22.9024 13.3166 22.9024 12.6834 23.2929 12.2929C23.6834 11.9024 24.3166 11.9024 24.7071 12.2929L27.7071 15.2929C28.0976 15.6834 28.0976 16.3166 27.7071 16.7071L24.7071 19.7071C24.3166 20.0976 23.6834 20.0976 23.2929 19.7071C22.9024 19.3166 22.9024 18.6834 23.2929 18.2929L24.5858 17H17V24.5858L18.2929 23.2929C18.6834 22.9024 19.3166 22.9024 19.7071 23.2929C20.0976 23.6834 20.0976 24.3166 19.7071 24.7071L16.7071 27.7071C16.3166 28.0976 15.6834 28.0976 15.2929 27.7071L12.2929 24.7071C11.9024 24.3166 11.9024 23.6834 12.2929 23.2929C12.6834 22.9024 13.3166 22.9024 13.7071 23.2929L15 24.5858V17H7.41421L8.70711 18.2929C9.09763 18.6834 9.09763 19.3166 8.70711 19.7071C8.31658 20.0976 7.68342 20.0976 7.29289 19.7071L4.29289 16.7071C3.90237 16.3166 3.90237 15.6834 4.29289 15.2929L7.29289 12.2929C7.68342 11.9024 8.31658 11.9024 8.70711 12.2929C9.09763 12.6834 9.09763 13.3166 8.70711 13.7071L7.41421 15H15V7.41421L13.7071 8.70711C13.3166 9.09763 12.6834 9.09763 12.2929 8.70711C11.9024 8.31658 11.9024 7.68342 12.2929 7.29289L15.2929 4.29289Z"/>
</svg>

<svg xmlns="http://www.w3.org/2000/svg" width="32" height="32" fill="none" viewBox="0 0 32 32">
  <g class="move">
    <path  fill-rule="evenodd" d="M15.293 4.293a1 1 0 011.414 0l3 3a1 1 0 01-1.414 1.414L17 7.414V15h7.586l-1.293-1.293a1 1 0 011.414-1.414l3 3a1 1 0 010 1.414l-3 3a1 1 0 01-1.414-1.414L24.586 17H17v7.586l1.293-1.293a1 1 0 011.414 1.414l-3 3a1 1 0 01-1.414 0l-3-3a1 1 0 011.414-1.414L15 24.586V17H7.414l1.293 1.293a1 1 0 11-1.414 1.414l-3-3a1 1 0 010-1.414l3-3a1 1 0 011.414 1.414L7.414 15H15V7.414l-1.293 1.293a1 1 0 11-1.414-1.414l3-3z" class="Union" clip-rule="evenodd"/>
  </g>
</svg>
